X:1
T:Title
%%score { ( 1 3 ) | ( 2 4 ) }
L:1/8
Q:1/4=100
M:4/4
K:Db
V:1 treble nm="Grand Piano"
V:3 treble 
V:2 bass 
V:4 bass 
V:1
 D2 F>[EG] [FA]2 [GB]2 | [GB]2 [FA]4 [Fd]2 | [Gc]2 [GA]2 [EG]2 [GB]2 | [FA]4 F2[K:bass] [G,CE]2 | %4
w: G.~F.~Root * * * *||||
 [F,D]2[K:treble] [A,DF]2 [FA]2 [GB]2 | [GB]4 [FA]2 [Fd]2 | c2 A2 =G2 B2 | [CA]6 [CA]2 | %8
w: ||||
 [CG]2 [CA]2 F2 A2 | G2 [CA]2 [DF]2 [FA]2 | B2 B2 A2 [Fd]2 | d4 c2- [Gc]2 | [Fd]6 z2 |] %13
w: |||||
V:2
 [D,F,]2 [D,A,D]>[D,A,] [D,D]2 [D,D]2 | [D,D]6 [D,A,]2 | [A,,A,]2 [A,,A,]2 [A,,A,]2 [A,,A,]2 | %3
 z4 D2 A,,2 | D,2 D,2 [D,D]2 [D,D]2 | [D,D]6 [D,A,]2 | [E,A,E]2 [E,A,C]2 [E,B,D]2 [E,=G,D]2 | %7
 [A,,A,]6 [A,,A,]2 | [A,,A,]2 [A,,A,]2 [D,A,D]2 [F,A,D]2 | [A,C]2 [A,,A,]2 [D,A,]2 [D,D]2 | %10
 [G,DG]2 [G,DG]2 [F,D]2 [D,A,]2 | [A,F]4 [A,,A,]4 | [D,A,]6 z2 |] %13
V:3
 x8 | x8 | x8 | A,6[K:bass] z2 | x2[K:treble] x6 | x8 | x8 | x8 | x8 | x8 | x8 | z4 E2 z2 | x8 |] %13
V:4
 x8 | x8 | x8 | D,6 z2 | x8 | x8 | x8 | x8 | x8 | x8 | x8 | x8 | x8 |] %13

